app/images/dist/youtube.svg

<svg width="48" height="48" viewBox="0 0 48 48" fill="none" xmlns="http://www.w3.org/2000/svg">
<path d="M43.1862 14.406C42.7262 12.69 41.3762 11.336 39.6622 10.874C36.5302 10.014 24.0002 10 24.0002 10C24.0002 10 11.4722 9.98601 8.33817 10.808C6.65817 11.266 5.27017 12.65 4.80617 14.364C3.98017 17.496 3.97217 23.992 3.97217 23.992C3.97217 23.992 3.96417 30.52 4.78417 33.62C5.24417 35.334 6.59417 36.688 8.31017 37.15C11.4742 38.01 23.9702 38.024 23.9702 38.024C23.9702 38.024 36.5002 38.038 39.6322 37.218C41.3442 36.758 42.7002 35.406 43.1662 33.692C43.9942 30.562 44.0002 24.068 44.0002 24.068C44.0002 24.068 44.0402 17.538 43.1862 14.406ZM19.9922 30.01L20.0022 18.01L30.4162 24.02L19.9922 30.01Z" fill="white"/>
</svg>

<svg width="48" height="48" fill="none" xmlns="http://www.w3.org/2000/svg"><path d="M43.186 14.406a5.012 5.012 0 00-3.524-3.532C36.53 10.014 24 10 24 10s-12.528-.014-15.662.808c-1.68.458-3.068 1.842-3.532 3.556-.826 3.132-.834 9.628-.834 9.628s-.008 6.528.812 9.628a5.012 5.012 0 003.526 3.53c3.164.86 15.66.874 15.66.874s12.53.014 15.662-.806a5.03 5.03 0 003.534-3.526c.828-3.13.834-9.624.834-9.624s.04-6.53-.814-9.662zM19.992 30.01l.01-12 10.414 6.01-10.424 5.99z" fill="#fff"/></svg>
